X: 1
T:Stuck in my head
M:C|
L:1/8
Q:80
C:Gary M. Bottoni - 11/1995
S:
K:HP
|: {Gdc}d3/2e{g}fd|
{a}g/2f/2{a}e/2c/2{gef}ed|
{gdc}d3/2e/2{g}fd|  !
{gcd}ce{ag}a2|
{Gdc}d3/2e{g}fd|
{a}g/2f/2{a}e/2c/2{gef}ed|  !
{gdc}d3/2e/2{g}fa|
{cd}ce{Gdc}d2:| |:
{g}A2{g}dB|  !
{g}e/2d/2{g}c{ag}a2|
AadB|
{gef}ec{gde}dB|
{g}A2{g}dB|  !
{g}e/2d/2{g}c{ag}a2|
Aad/2B/2{g}d/2f/2|
{g}ea{Gdc}d2:|  !
